X: 2361
M: C
L: 1/8
K: D
(uFG) |\
c>Ac>e a>gf>e | f>cd>B A2(FG) |\
f>bf>d B>ge>c | d2d2d2 :|
|: (fg) |\
(3aaa (fd) A>df>d | (3ggg (ec) A>ce>c |\
f>dg>e a>fb>g | e>cd>B A2(fg) |\
(3aaa (fd) A>df>d | (3ggg ec A2 ag |\
f>dA>F E>ge>c | d2d2d2 :|


